X: 3337
M: C
L: 1/8
K: D
uA2 |\
dAFA BGEG | FA d4 c2 |\
(Bg)(gf) (fe)(ed) | c2A2 A3G |\
fgaf bgec | d2d2d2 :|
|: (ufe) |\
dfba gfed | ceag fedc |\
d2(df) dAGF | Edcd ecAg |\
fgaf bgec | d2d2d2 :|


